svgs/sharp-regular/users-medical.svg

<svg xmlns="http://www.w3.org/2000/svg" viewBox="0 0 640 512"><!--! Font Awesome Pro 6.6.0 by @fontawesome - https://fontawesome.com License - https://fontawesome.com/license (Commercial License) Copyright 2024 Fonticons, Inc. --><path d="M144 0a80 80 0 1 1 0 160A80 80 0 1 1 144 0zM512 0a80 80 0 1 1 0 160A80 80 0 1 1 512 0zM48 192l148 0c-2.6 10.2-4 21-4 32c0 38.2 16.8 72.5 43.3 96L0 320 48 192zM640 320l-32 0 0-32-32 0-64 0-32 0 0 32-75.3 0c26.6-23.5 43.3-57.8 43.3-96c0-11-1.4-21.8-4-32l148 0 48 128zM176 352l240 0 0 32 0 16-204.3 0-19.2 64L416 464l0 16 32 0 32 0 0 32-18.1 0-283.8 0L128 512l14.4-48L176 352zm144-80a48 48 0 1 0 0-96 48 48 0 1 0 0 96zm0-144a96 96 0 1 1 0 192 96 96 0 1 1 0-192zM512 320l64 0 0 64 64 0 0 64-64 0 0 64-64 0 0-64-64 0 0-64 64 0 0-64z"/></svg>

<svg xmlns="http://www.w3.org/2000/svg" viewBox="0 0 640 512"><!--! Font Awesome Pro 6.4.2 by @fontawesome - https://fontawesome.com License - https://fontawesome.com/license (Commercial License) Copyright 2023 Fonticons, Inc. --><path d="M144 0a80 80 0 1 1 0 160A80 80 0 1 1 144 0zM512 0a80 80 0 1 1 0 160A80 80 0 1 1 512 0zM48 192H196c-2.6 10.2-4 21-4 32c0 38.2 16.8 72.5 43.3 96H0L48 192zM640 320H608V288H576 512 480v32H404.7c26.6-23.5 43.3-57.8 43.3-96c0-11-1.4-21.8-4-32H592l48 128zM176 352H416v32 16H211.7l-19.2 64H416v16h32 32v32H461.9 178.1 128l14.4-48L176 352zm144-80a48 48 0 1 0 0-96 48 48 0 1 0 0 96zm0-144a96 96 0 1 1 0 192 96 96 0 1 1 0-192zM512 320h64v64h64v64H576v64H512V448H448V384h64V320z"/></svg>
